X: 3217
T: BELFAST LINEN
%R: jig
B: James Kerr "Merry Melodies" v.3 p.25 #217
Z: 2016 John Chambers <jc:trillian.mit.edu>
M: 6/8
L: 1/8
K: A
ud |\
cee e2a | faf ecA | cee e2a | fed B3 |\
cee e2a | faf ecA | EAA FAA | EAA A2 ::\
uE |\
ECE ABc | BAB cde | fga edc | BcA GFE |
ECE ABc | BAB cde | fga edc | BFG A2 ::\
e |\
efg agf | efg a2E | EFG AGF | EFG A2e |\
faf ece | faf ecA | EAA FAA | EAA A2 :|

%%sep 1 1 500
%%sep 1 1 500

